X: 97
T: The White Cockade
P: piffero primo b0062
O: Robinson 1818
%R: march
F: http://ancients.sudburymuster.org/mus/acn/pdf/fyf09F.pdf
Z: 2020 John Chambers <jc:trillian.mit.edu>
M: 2/4
L: 1/16
K: G
GA |\
B2Bc B2AG | d2B2 B2g2 | d2B2 B2AG | FGAB A2GA |\
B2Bc B2AG | B2d2 g2fg | a2f2 g2e2 | d2B2 B2 :|
|: Bc |\
d2B2 g2B2 | d2d2 e2d2 | edef g2fg | a2A2 A2GA |\
B2Bc B2AG | B2d2 g2fg | a2f2 g2e2 | d2B2 B2 :|


